X: 042
M: C|
L: 1/8
K: D
(df).d.f (ec).A.c | dBGB AFDF | GBA=c Bged | dcBA A2(dc) |
(dA).A.A (eA).A.A | (fd).g.e (aA).A.A | BdcB AGFE | D2D2 D3 |]
dAdA FAFD | BGEG BGdB | gefd ecdB | (ce)(ed) (cB)(AG) |
(Fd).d.d (Ge)ee | (Af)ff (Bg).g.g | afdf Bgec | d2d2 d3 ||]


